X:1
T: The Bridge of Brechin
C:
R:Strathspey
Q: 128
K:C
M:4/4
L:1/16
|:F2|CF3 A3F c3A f3d|c3A BAGF EG3 G3A|CF3 A3F c3A f3d|c3A BAGF CF3 F2F2|
CF3 A3F c3A f3d|c3A BAGF EG3 G3A|CF3 A3F c3A f3d|c3A BAGF CF3 F2c2|
fa3 ga3 f3c df3|c3F dcBA BG3 G3c|fa3 ga3 f3c df3|c3f efge fF3 A3c|
((3f2g2a2) ((3e2f2g2) ((3d2e2f2) ((3c2B2A2) |((3B2c2d2) ((3c2B2A2) BG3 G3B|((3A2B2c2) ((3c2B2A2) ((3B2c2d2) ((3d2c2B2) |((3d2e2f2) ((3e2f2g2) af3 f2:|
